Papirus/22x22/places/folder-yellow-android.svg

<svg width="22" height="22" version="1" xmlns="http://www.w3.org/2000/svg">
 <rect x="1" y="8.5" width="20" height="12" rx="1" ry="1" style="opacity:.2"/>
 <rect x="1" y="8.5" width="20" height="12" rx="1" ry="1" style="opacity:.2"/>
 <path d="m1 16c0 0.554 0.446 1 1 1h18c0.554 0 1-0.446 1-1v-11c0-0.554-0.446-1-1-1h-10v-1c0-0.554-0.446-1-1-1h-7c-0.554 0-1 0.446-1 1" style="fill:#b58f1b"/>
 <rect x="1" y="7.5" width="20" height="12" rx="1" ry="1" style="opacity:.2"/>
 <rect x="3" y="6" width="16" height="8" rx="1" ry="1" style="fill:#e4e4e4"/>
 <rect x="1" y="8" width="20" height="12" rx="1" ry="1" style="fill:#e2b322"/>
 <path d="m2 2c-0.554 0-1 0.446-1 1v0.5c0-0.554 0.446-1 1-1h7c0.554 0 1 0.446 1 1v-0.5c0-0.554-0.446-1-1-1zm8 2v0.5h10c0.554 0 1 0.446 1 1v-0.5c0-0.554-0.446-1-1-1z" style="fill:#ffffff;opacity:.1"/>
 <path d="m7 11a1.0001 1.0001 0 0 0-0.6972656 1.716797l0.6738281 0.673828c-0.4793759 0.621964-0.8409096 1.519895-0.9667969 2.832032-0.036746 0.769972 0.7753906 0.771484 0.7753906 0.771484l7.4296878 0.03125s0.835452 0.0018 0.794922-0.806641c-0.132106-1.310324-0.495807-2.204258-0.974609-2.820312l0.68164-0.681641a1.0001 1.0001 0 0 0-0.726562-1.716797 1.0001 1.0001 0 0 0-0.6875 0.302735l-0.960938 0.960937c-0.640264-0.191279-1.283626-0.22043-1.789062-0.228515-0.544748-0.0087-1.22261 0.01488-1.8886725 0.214843l-0.9472657-0.947265a1.0001 1.0001 0 0 0-0.7167968-0.302735z" style="fill:#4f3e0c"/>
 <circle cx="13.009766" cy="15.009766" r="1" style="fill:#e2b322"/>
 <circle cx="8.0097656" cy="15.009766" r="1" style="fill:#e2b322"/>
</svg>

<svg xmlns="http://www.w3.org/2000/svg" width="22" height="22" version="1">
 <rect style="opacity:0.2" width="20" height="12" x="1" y="8.5" rx="1" ry="1"/>
 <rect style="opacity:0.2" width="20" height="12" x="1" y="8.5" rx="1" ry="1"/>
 <path style="fill:#b58f1b" d="m1 16c0 0.554 0.446 1 1 1h18c0.554 0 1-0.446 1-1v-11c0-0.554-0.446-1-1-1h-10v-1c0-0.554-0.446-1-1-1h-7c-0.554 0-1 0.446-1 1"/>
 <rect style="opacity:0.2" width="20" height="12" x="1" y="7.5" rx="1" ry="1"/>
 <rect style="fill:#e4e4e4" width="16" height="8" x="3" y="6" rx="1" ry="1"/>
 <rect style="fill:#e2b322" width="20" height="12" x="1" y="8" rx="1" ry="1"/>
 <path style="fill:#ffffff;opacity:0.1" d="m2 2c-0.554 0-1 0.446-1 1v0.5c0-0.554 0.446-1 1-1h7c0.554 0 1 0.446 1 1v-0.5c0-0.554-0.446-1-1-1zm8 2v0.5h10c0.554 0 1 0.446 1 1v-0.5c0-0.554-0.446-1-1-1z"/>
 <path style="fill:#4f3e0c" d="M 7 11 A 1 1 0 0 0 6.3027 12.717 L 6.9766 13.391 C 6.4972 14.013 6.1357 14.911 6.0098 16.223 C 5.973 16.993 6.7852 16.994 6.7852 16.994 L 14.215 17.025 C 14.215 17.025 15.05 17.025 15.01 16.219 C 14.878 14.908 14.514 14.014 14.035 13.398 L 14.717 12.717 A 1 1 0 0 0 13.99 11 A 1 1 0 0 0 13.303 11.303 L 12.342 12.264 C 11.702 12.072 11.058 12.043 10.553 12.035 C 10.008 12.026 9.3301 12.05 8.6641 12.25 L 7.7168 11.303 A 1 1 0 0 0 7 11 z M 8.5 14 A 0.5 0.5 0 0 1 9 14.5 A 0.5 0.5 0 0 1 8.5 15 A 0.5 0.5 0 0 1 8 14.5 A 0.5 0.5 0 0 1 8.5 14 z M 12.5 14 A 0.5 0.5 0 0 1 13 14.5 A 0.5 0.5 0 0 1 12.5 15 A 0.5 0.5 0 0 1 12 14.5 A 0.5 0.5 0 0 1 12.5 14 z"/>
</svg>
